X:1
T:The Cuckoo's Nest
L:1/8
M:4/4
I:linebreak $
K:D
V:1 treble nm="Voice" snm="Voice"
V:1
 FG || AFDF AFDF | AB(AF DEFD) | GED3/2E GECE | GAG(E =C2 E2) |$ B,2B,C DF Adfa | fdAF G2 FG | %7
 AFDF EDCE | D2 DD D2 ::$ FG || A d2 d2 f ed | c2 A2 A3 B | =c2 cB cedc | BAGF G2 FG |$ %14
 A=FDF Ad=fa | =fdA=F G2 FG | A=FDF ED=CE | D2 DD D2 :| %18
